icons/svgs/file-invoice-solid.svg

<svg width="24" height="24" viewBox="0 0 24 24" fill="none" xmlns="http://www.w3.org/2000/svg">
<path d="M7.5 2H13.75V7C13.75 7.70312 14.2969 8.25 15 8.25H20V19.5C20 20.9062 18.8672 22 17.5 22H7.5C6.09375 22 5 20.9062 5 19.5V4.5C5 3.13281 6.09375 2 7.5 2ZM15 2L20 7H15V2ZM8.125 4.5C7.77344 4.5 7.5 4.8125 7.5 5.125C7.5 5.47656 7.77344 5.75 8.125 5.75H10.625C10.9375 5.75 11.25 5.47656 11.25 5.125C11.25 4.8125 10.9375 4.5 10.625 4.5H8.125ZM8.125 7C7.77344 7 7.5 7.3125 7.5 7.625C7.5 7.97656 7.77344 8.25 8.125 8.25H10.625C10.9375 8.25 11.25 7.97656 11.25 7.625C11.25 7.3125 10.9375 7 10.625 7H8.125ZM8.75 10.75C8.04688 10.75 7.5 11.3359 7.5 12V14.5C7.5 15.2031 8.04688 15.75 8.75 15.75H16.25C16.9141 15.75 17.5 15.2031 17.5 14.5V12C17.5 11.3359 16.9141 10.75 16.25 10.75H8.75ZM8.75 12H16.25V14.5H8.75V12ZM14.375 18.25C14.0234 18.25 13.75 18.5625 13.75 18.875C13.75 19.2266 14.0234 19.5 14.375 19.5H16.875C17.1875 19.5 17.5 19.2266 17.5 18.875C17.5 18.5625 17.1875 18.25 16.875 18.25H14.375Z" fill="black"/>
</svg>

<svg xmlns="http://www.w3.org/2000/svg" width="24" height="24" fill="currentColor" class="icon-file-invoice-solid" viewBox="0 0 24 24">
  <mask id="a" width="15" height="20" x="5" y="2" maskUnits="userSpaceOnUse" style="mask-type:alpha">
    <path d="M7.5 2h6.25v5c0 .703.547 1.25 1.25 1.25h5V19.5c0 1.406-1.133 2.5-2.5 2.5h-10A2.47 2.47 0 0 1 5 19.5v-15C5 3.133 6.094 2 7.5 2M15 2l5 5h-5zM8.125 4.5a.64.64 0 0 0-.625.625c0 .352.273.625.625.625h2.5a.64.64 0 0 0 .625-.625c0-.312-.312-.625-.625-.625zm0 2.5a.64.64 0 0 0-.625.625c0 .352.273.625.625.625h2.5a.64.64 0 0 0 .625-.625c0-.312-.312-.625-.625-.625zm.625 3.75c-.703 0-1.25.586-1.25 1.25v2.5c0 .703.547 1.25 1.25 1.25h7.5c.664 0 1.25-.547 1.25-1.25V12c0-.664-.586-1.25-1.25-1.25zm0 1.25h7.5v2.5h-7.5zm5.625 6.25a.64.64 0 0 0-.625.625c0 .352.273.625.625.625h2.5a.64.64 0 0 0 .625-.625c0-.312-.312-.625-.625-.625z"/>
  </mask>
  <g mask="url(#a)">
    <path d="M0 0h24v24H0z"/>
  </g>
</svg>
